packages/foundations/assets/icons/functional/images/transportation/boat_inverted.svg

<svg xmlns="http://www.w3.org/2000/svg" width="32" height="32" fill="none"><path fill="#1A1C1F" fill-rule="evenodd" d="M16.027 7.662c-5.162.844-6.305 1.044-6.444 1.125-.374.219-.479.543-.367 1.133.092.489.059 1.482-.066 1.947-.098.364-.445 1.116-.596 1.289-.088.102-.373.164-2.279.496-1.198.209-2.302.429-2.452.488-.389.153-.901.534-1.118.832-.523.718-.57.976-.571 3.14-.001 1.684.001 1.715.122 1.943a.95.95 0 0 0 .781.478c.497 0 1.312-.331 1.896-.771.176-.133.542-.46.813-.728l.494-.488.566.546c.649.625 1.306 1.076 1.854 1.273a2.5 2.5 0 0 0 1.748-.028c.576-.228 1.103-.597 1.765-1.237l.573-.554.567.546c1.964 1.891 3.414 1.887 5.39-.016l.552-.531.573.556c.855.831 1.542 1.247 2.291 1.386.711.133 1.413-.078 1.897-.57.148-.15.694-.952 1.287-1.889 1.878-2.969 4.419-7.065 4.495-7.248.121-.288.044-.578-.224-.847-.227-.227-.32-.258-.694-.231-.088.006-1.79.298-3.783.647s-3.628.63-3.634.623c-.006-.006-.19-.252-.409-.545-1.041-1.397-2.212-2.304-3.411-2.641-.385-.109-1.288-.178-1.616-.124m1.117 1.753c.692.18 1.484.735 2.11 1.479.28.332.311.39.228.423-.052.021-1.967.366-4.255.765l-4.39.769c-.201.038-.226.032-.195-.044.177-.44.306-1.164.331-1.85l.026-.75 2.621-.431c1.441-.237 2.753-.434 2.915-.437.163-.003.437.031.609.076m8.216 3.386c.479.295.49 1.049.02 1.399-.115.086-1.597.332-8.319 1.382-5.55.868-8.238 1.268-8.364 1.244-.25-.047-.57-.373-.619-.629-.091-.489.217-.955.681-1.024l8.148-1.28c4.691-.737 7.996-1.234 8.106-1.218.103.015.259.072.347.126m.281 7.969c-.08.042-.332.266-.56.498-.894.909-1.809 1.399-2.618 1.399-.771 0-1.634-.417-2.442-1.18-.644-.608-.972-.615-1.609-.038-.826.749-1.758 1.218-2.419 1.218-.632 0-1.526-.443-2.416-1.196-.702-.595-.952-.6-1.606-.03-.643.56-1.328.974-1.887 1.14-.858.254-1.892-.12-3.189-1.155-.71-.566-.915-.548-1.703.146-.723.636-1.124.827-2.429 1.154-.252.064-.503.314-.583.583-.127.423.197.962.626 1.042.486.092 1.51-.164 2.198-.549.192-.108.519-.323.726-.479s.398-.283.425-.283a.7.7 0 0 1 .213.125c.638.482 1.706.982 2.406 1.127 1.114.23 2.222-.067 3.497-.939.252-.172.473-.313.491-.313.017 0 .219.135.448.299.489.351 1.35.78 1.803.899 1.327.349 2.541.012 4.075-1.13.073-.054.159-.013.536.257 1.249.892 2.618 1.202 3.869.874.528-.138 1.451-.625 1.964-1.037.257-.207.481-.375.497-.375s.189.146.384.326c.833.766 1.795 1.223 2.564 1.219.698-.003 1.141-.614.863-1.189-.135-.278-.368-.421-.879-.54-.742-.172-1.316-.567-1.983-1.368-.196-.234-.423-.46-.506-.503-.192-.1-.567-.101-.756-.002"/></svg>

<svg width="32" height="32" viewBox="0 0 32 32" fill="none" xmlns="http://www.w3.org/2000/svg"><path d="M16.027 7.662 C 10.865 8.506,9.722 8.706,9.583 8.787 C 9.209 9.006,9.104 9.330,9.216 9.920 C 9.308 10.409,9.275 11.402,9.150 11.867 C 9.052 12.231,8.705 12.983,8.554 13.156 C 8.466 13.258,8.181 13.320,6.275 13.652 C 5.077 13.861,3.973 14.081,3.823 14.140 C 3.434 14.293,2.922 14.674,2.705 14.972 C 2.182 15.690,2.135 15.948,2.134 18.112 C 2.133 19.796,2.135 19.827,2.256 20.055 C 2.400 20.327,2.737 20.533,3.037 20.533 C 3.534 20.533,4.349 20.202,4.933 19.762 C 5.109 19.629,5.475 19.302,5.746 19.034 L 6.240 18.546 6.806 19.092 C 7.455 19.717,8.112 20.168,8.660 20.365 C 9.222 20.567,9.851 20.557,10.408 20.337 C 10.984 20.109,11.511 19.740,12.173 19.100 L 12.746 18.546 13.313 19.092 C 15.277 20.983,16.727 20.979,18.703 19.076 L 19.255 18.545 19.828 19.101 C 20.683 19.932,21.370 20.348,22.119 20.487 C 22.830 20.620,23.532 20.409,24.016 19.917 C 24.164 19.767,24.710 18.965,25.303 18.028 C 27.181 15.059,29.722 10.963,29.798 10.780 C 29.919 10.492,29.842 10.202,29.574 9.933 C 29.347 9.706,29.254 9.675,28.880 9.702 C 28.792 9.708,27.090 10.000,25.097 10.349 C 23.104 10.699,21.469 10.979,21.463 10.972 C 21.457 10.966,21.273 10.720,21.054 10.427 C 20.013 9.030,18.842 8.123,17.643 7.786 C 17.258 7.677,16.355 7.608,16.027 7.662 M17.144 9.415 C 17.836 9.595,18.628 10.150,19.254 10.894 C 19.534 11.226,19.565 11.284,19.482 11.317 C 19.430 11.338,17.515 11.683,15.227 12.082 C 12.939 12.482,10.963 12.828,10.837 12.851 C 10.636 12.889,10.611 12.883,10.642 12.807 C 10.819 12.367,10.948 11.643,10.973 10.957 L 10.999 10.207 13.620 9.776 C 15.061 9.539,16.373 9.342,16.535 9.339 C 16.698 9.336,16.972 9.370,17.144 9.415 M25.360 12.801 C 25.839 13.096,25.850 13.850,25.380 14.200 C 25.265 14.286,23.783 14.532,17.061 15.582 C 11.511 16.450,8.823 16.850,8.697 16.826 C 8.447 16.779,8.127 16.453,8.078 16.197 C 7.987 15.708,8.295 15.242,8.759 15.173 C 8.884 15.154,12.551 14.578,16.907 13.893 C 21.598 13.156,24.903 12.659,25.013 12.675 C 25.116 12.690,25.272 12.747,25.360 12.801 M25.641 20.770 C 25.561 20.812,25.309 21.036,25.081 21.268 C 24.187 22.177,23.272 22.667,22.463 22.667 C 21.692 22.667,20.829 22.250,20.021 21.487 C 19.377 20.879,19.049 20.872,18.412 21.449 C 17.586 22.198,16.654 22.667,15.993 22.667 C 15.361 22.667,14.467 22.224,13.577 21.471 C 12.875 20.876,12.625 20.871,11.971 21.441 C 11.328 22.001,10.643 22.415,10.084 22.581 C 9.226 22.835,8.192 22.461,6.895 21.426 C 6.185 20.860,5.980 20.878,5.192 21.572 C 4.469 22.208,4.068 22.399,2.763 22.726 C 2.511 22.790,2.260 23.040,2.180 23.309 C 2.053 23.732,2.377 24.271,2.806 24.351 C 3.292 24.443,4.316 24.187,5.004 23.802 C 5.196 23.694,5.523 23.479,5.730 23.323 C 5.937 23.167,6.128 23.040,6.155 23.040 C 6.181 23.040,6.278 23.096,6.368 23.165 C 7.006 23.647,8.074 24.147,8.774 24.292 C 9.888 24.522,10.996 24.225,12.271 23.353 C 12.523 23.181,12.744 23.040,12.762 23.040 C 12.779 23.040,12.981 23.175,13.210 23.339 C 13.699 23.690,14.560 24.119,15.013 24.238 C 16.340 24.587,17.554 24.250,19.088 23.108 C 19.161 23.054,19.247 23.095,19.624 23.365 C 20.873 24.257,22.242 24.567,23.493 24.239 C 24.021 24.101,24.944 23.614,25.457 23.202 C 25.714 22.995,25.938 22.827,25.954 22.827 C 25.970 22.827,26.143 22.973,26.338 23.153 C 27.171 23.919,28.133 24.376,28.902 24.372 C 29.600 24.369,30.043 23.758,29.765 23.183 C 29.630 22.905,29.397 22.762,28.886 22.643 C 28.144 22.471,27.570 22.076,26.903 21.275 C 26.707 21.041,26.480 20.815,26.397 20.772 C 26.205 20.672,25.830 20.671,25.641 20.770 " fill="#1A1C1F" stroke="none" fill-rule="evenodd"></path></svg>
